F[ERK5
CUT[Ach Mutter liebe Mutter]
REG[Europa, Mitteleuropa, Deutschland]
KEY[L0084B 16  G 2/4]
MEL[-5_  3_.33_.2  2__1_-5_  4_4_4353  2__0_
    -5_  5_.65_4_  3__5432  1_1_3212  1__
    2__  3_3_542_  1__0_ //] >>
FCT[Lied]
CMT[Bote 1807, dann Buesching/von der Hagen]
